lib/healthicons/icons/outline/shapes/square_medium.svg

<svg fill="none" height="48" viewBox="0 0 48 48" width="48" xmlns="http://www.w3.org/2000/svg"><path clip-rule="evenodd" d="m11 11v26h26v-26zm-1-2c-.55228 0-1 .44772-1 1v28c0 .5523.44772 1 1 1h28c.5523 0 1-.4477 1-1v-28c0-.55228-.4477-1-1-1z" fill="#333" fill-rule="evenodd"/></svg>

<svg width="48" height="48" viewBox="0 0 48 48" fill="none" xmlns="http://www.w3.org/2000/svg">
<path fill-rule="evenodd" clip-rule="evenodd" d="M11 11V37H37V11H11ZM10 9C9.44772 9 9 9.44772 9 10V38C9 38.5523 9.44772 39 10 39H38C38.5523 39 39 38.5523 39 38V10C39 9.44772 38.5523 9 38 9H10Z" fill="#333333"/>
</svg>
